static/logos/reddit-wordmark-color.svg

<svg width="100" height="35" viewBox="0 0 100 35" fill="none" xmlns="http://www.w3.org/2000/svg">
<g clip-path="url(#clip0_1_1280)">
<path d="M90.2235 14.0246C91.4255 14.0246 92.4001 13.0501 92.4001 11.848C92.4001 10.6459 91.4255 9.67145 90.2235 9.67145C89.0214 9.67145 88.0469 10.6459 88.0469 11.848C88.0469 13.0501 89.0214 14.0246 90.2235 14.0246Z" fill="#FF4500"/>
<path d="M59.1377 21.1294C60.2055 21.1294 60.8215 20.3285 60.7804 19.5482C60.7599 19.1376 60.7188 18.8706 60.6778 18.6653C60.0207 15.8316 57.7209 13.7372 54.9899 13.7372C51.7455 13.7372 49.1172 16.6735 49.1172 20.2875C49.1172 23.9014 51.7455 26.8378 54.9899 26.8378C57.0227 26.8378 58.4806 26.0986 59.5279 24.9281C60.0412 24.3532 59.9385 23.4702 59.3225 23.039C58.8092 22.6899 58.1726 22.8131 57.7004 23.2033C57.2486 23.5934 56.3862 24.3737 54.9899 24.3737C53.3472 24.3737 51.9509 22.9569 51.6429 21.0883H59.1377V21.1294ZM54.9693 16.2218C56.4478 16.2218 57.7209 17.3716 58.1932 18.9528H51.7455C52.2178 17.3511 53.4909 16.2218 54.9693 16.2218Z" fill="#222222"/>
<path d="M49.2386 15.0308C49.2386 14.4147 48.7868 13.9219 48.2119 13.8193C46.4254 13.5523 44.7417 14.2094 43.7766 15.4209V15.2566C43.7766 14.4969 43.1605 14.0246 42.5445 14.0246C41.8669 14.0246 41.3125 14.579 41.3125 15.2566V25.3183C41.3125 25.9754 41.8053 26.5503 42.4624 26.5914C43.1811 26.6324 43.7766 26.078 43.7766 25.3593V20.1642C43.7766 17.8644 45.5014 15.9753 47.8833 16.2423C47.9655 16.2423 48.0476 16.2423 48.1297 16.2423C48.7458 16.2012 49.2386 15.6673 49.2386 15.0308Z" fill="#222222"/>
<path d="M91.4563 16.3449C91.4563 15.6673 90.9018 15.1129 90.2242 15.1129C89.5466 15.1129 88.9922 15.6673 88.9922 16.3449C88.9922 16.386 88.9922 24.9692 88.9922 25.3593C88.9922 26.037 89.5466 26.5914 90.2242 26.5914C90.9018 26.5914 91.4563 26.037 91.4563 25.3593C91.4563 24.9897 91.4563 16.4065 91.4563 16.3449Z" fill="#222222"/>
<path d="M73.1425 9.52769C73.1425 8.85007 72.5881 8.29565 71.9105 8.29565C71.2329 8.29565 70.6784 8.85007 70.6784 9.52769V15.0102C69.8366 14.1683 68.7893 13.7577 67.5368 13.7577C64.2924 13.7577 61.6641 16.694 61.6641 20.308C61.6641 23.922 64.2924 26.8583 67.5368 26.8583C68.7893 26.8583 69.8571 26.4271 70.699 25.5852C70.8016 26.1602 71.315 26.5914 71.9105 26.5914C72.5881 26.5914 73.1425 26.0369 73.1425 25.3593V9.52769ZM67.5573 24.4148C65.6682 24.4148 64.1487 22.5873 64.1487 20.308C64.1487 18.0492 65.6682 16.2012 67.5573 16.2012C69.4464 16.2012 70.9659 18.0287 70.9659 20.308C70.9659 22.5873 69.4259 24.4148 67.5573 24.4148Z" fill="#222222"/>
<path d="M85.9941 9.52769C85.9941 8.85007 85.4396 8.29565 84.762 8.29565C84.0844 8.29565 83.53 8.85007 83.53 9.52769V15.0102C82.6881 14.1683 81.6409 13.7577 80.3883 13.7577C77.144 13.7577 74.5156 16.694 74.5156 20.308C74.5156 23.922 77.144 26.8583 80.3883 26.8583C81.6409 26.8583 82.7086 26.4271 83.5505 25.5852C83.6532 26.1602 84.1665 26.5914 84.762 26.5914C85.4396 26.5914 85.9941 26.0369 85.9941 25.3593V9.52769ZM80.3883 24.4148C78.4992 24.4148 76.9797 22.5873 76.9797 20.308C76.9797 18.0492 78.4992 16.2012 80.3883 16.2012C82.2774 16.2012 83.7969 18.0287 83.7969 20.308C83.7969 22.5873 82.2774 24.4148 80.3883 24.4148Z" fill="#222222"/>
<path d="M97.7006 25.3799V16.2218H98.7889C99.3638 16.2218 99.8771 15.7905 99.9182 15.1951C99.9593 14.5585 99.4459 14.0246 98.8299 14.0246H97.7006V12.2998C97.7006 11.6427 97.2077 11.0677 96.5507 11.0267C95.832 10.9856 95.2365 11.54 95.2365 12.2587V14.0452H94.2098C93.6348 14.0452 93.1215 14.4764 93.0804 15.0719C93.0394 15.7084 93.5527 16.2423 94.1687 16.2423H95.216V25.4004C95.216 26.078 95.7704 26.6324 96.448 26.6324C97.1667 26.5914 97.7006 26.0575 97.7006 25.3799Z" fill="#222222"/>
<path d="M17.2074 34.4148C26.7107 34.4148 34.4148 26.7107 34.4148 17.2074C34.4148 7.704 26.7107 0 17.2074 0C7.704 0 0 7.704 0 17.2074C0 26.7107 7.704 34.4148 17.2074 34.4148Z" fill="#FF4500"/>
<path d="M28.6892 17.2074C28.6892 15.8111 27.5599 14.7023 26.1841 14.7023C25.5065 14.7023 24.8905 14.9692 24.4387 15.4004C22.7139 14.1684 20.3525 13.3676 17.7242 13.2649L18.8741 7.88502L22.6112 8.68584C22.6523 9.6304 23.4326 10.3902 24.3976 10.3902C25.3833 10.3902 26.1841 9.58934 26.1841 8.60371C26.1841 7.61808 25.3833 6.81726 24.3976 6.81726C23.6995 6.81726 23.0835 7.22794 22.796 7.82342L18.6276 6.94046C18.5044 6.91993 18.3812 6.94046 18.2991 7.00207C18.1964 7.06367 18.1348 7.16634 18.1143 7.28954L16.8412 13.2854C14.1718 13.3676 11.7693 14.1684 10.024 15.421C9.57221 14.9897 8.95619 14.7228 8.27857 14.7228C6.88227 14.7228 5.77344 15.8521 5.77344 17.2279C5.77344 18.2546 6.38945 19.1171 7.25188 19.5072C7.21081 19.7536 7.19028 20 7.19028 20.267C7.19028 24.1273 11.6872 27.269 17.2313 27.269C22.7755 27.269 27.2724 24.1479 27.2724 20.267C27.2724 20.0205 27.2519 19.7536 27.2108 19.5072C28.0732 19.1171 28.6892 18.2341 28.6892 17.2074ZM11.4819 18.9939C11.4819 18.0082 12.2827 17.2074 13.2683 17.2074C14.2539 17.2074 15.0548 18.0082 15.0548 18.9939C15.0548 19.9795 14.2539 20.7803 13.2683 20.7803C12.2827 20.8008 11.4819 19.9795 11.4819 18.9939ZM21.4818 23.7372C20.2498 24.9692 17.909 25.0513 17.2313 25.0513C16.5332 25.0513 14.1923 24.9487 12.9808 23.7372C12.796 23.5524 12.796 23.2649 12.9808 23.0801C13.1656 22.8953 13.4531 22.8953 13.6379 23.0801C14.4182 23.8604 16.0609 24.1273 17.2313 24.1273C18.4018 24.1273 20.065 23.8604 20.8248 23.0801C21.0096 22.8953 21.297 22.8953 21.4818 23.0801C21.6461 23.2649 21.6461 23.5524 21.4818 23.7372ZM21.1533 20.8008C20.1677 20.8008 19.3669 20 19.3669 19.0144C19.3669 18.0288 20.1677 17.2279 21.1533 17.2279C22.1389 17.2279 22.9397 18.0288 22.9397 19.0144C22.9397 19.9795 22.1389 20.8008 21.1533 20.8008Z" fill="white"/>
</g>
<defs>
<clipPath id="clip0_1_1280">
<rect width="100" height="34.4969" fill="white"/>
</clipPath>
</defs>
</svg>

<svg xmlns="http://www.w3.org/2000/svg" width="182.857" height="64" fill="none" viewBox="0 0 100 35"><g clip-path="url(#a)"><path fill="#FF4500" d="M90.224 14.025a2.177 2.177 0 1 0 0-4.354 2.177 2.177 0 0 0 0 4.354Z"/><path fill="#222" d="M59.138 21.13c1.068 0 1.684-.802 1.642-1.582a5.813 5.813 0 0 0-.102-.883c-.657-2.833-2.957-4.928-5.688-4.928-3.245 0-5.873 2.937-5.873 6.55 0 3.614 2.629 6.55 5.873 6.55 2.033 0 3.49-.738 4.538-1.909a1.27 1.27 0 0 0-.206-1.889c-.513-.35-1.15-.226-1.622.164-.451.39-1.314 1.17-2.71 1.17-1.643 0-3.04-1.416-3.347-3.285h7.495v.041Zm-4.169-4.908c1.479 0 2.752 1.15 3.224 2.73h-6.447c.472-1.6 1.745-2.73 3.223-2.73ZM49.239 15.03c0-.615-.452-1.108-1.027-1.21-1.787-.268-3.47.39-4.435 1.6v-.163c0-.76-.617-1.232-1.233-1.232-.677 0-1.231.554-1.231 1.232v10.061c0 .657.492 1.232 1.15 1.273a1.23 1.23 0 0 0 1.314-1.232v-5.195c0-2.3 1.724-4.189 4.106-3.922h.247c.616-.04 1.109-.575 1.109-1.211ZM91.456 16.345c0-.678-.554-1.232-1.232-1.232-.677 0-1.232.554-1.232 1.232v9.014c0 .678.555 1.232 1.232 1.232.678 0 1.232-.554 1.232-1.232v-9.014ZM73.142 9.528c0-.678-.554-1.232-1.231-1.232-.678 0-1.233.554-1.233 1.232v5.482c-.841-.842-1.889-1.252-3.141-1.252-3.245 0-5.873 2.936-5.873 6.55s2.628 6.55 5.873 6.55c1.252 0 2.32-.43 3.162-1.273a1.234 1.234 0 0 0 1.212 1.006c.677 0 1.231-.554 1.231-1.232V9.528Zm-5.585 14.887c-1.889 0-3.408-1.828-3.408-4.107 0-2.259 1.52-4.107 3.408-4.107 1.89 0 3.409 1.828 3.409 4.107 0 2.28-1.54 4.107-3.409 4.107ZM85.994 9.528c0-.678-.554-1.232-1.232-1.232-.678 0-1.232.554-1.232 1.232v5.482c-.842-.842-1.89-1.252-3.142-1.252-3.244 0-5.872 2.936-5.872 6.55s2.628 6.55 5.872 6.55c1.253 0 2.32-.43 3.162-1.273a1.234 1.234 0 0 0 1.212 1.006c.678 0 1.232-.554 1.232-1.232V9.528Zm-5.606 14.887c-1.889 0-3.408-1.828-3.408-4.107 0-2.259 1.52-4.107 3.408-4.107 1.89 0 3.409 1.828 3.409 4.107 0 2.28-1.52 4.107-3.409 4.107ZM97.7 25.38v-9.158h1.089c.575 0 1.088-.432 1.13-1.027a1.102 1.102 0 0 0-1.09-1.17h-1.128V12.3c0-.657-.493-1.232-1.15-1.273a1.23 1.23 0 0 0-1.314 1.232v1.786H94.21c-.575 0-1.088.431-1.13 1.027a1.102 1.102 0 0 0 1.089 1.17h1.047V25.4c0 .678.554 1.232 1.232 1.232.719-.04 1.253-.575 1.253-1.252Z"/><path fill="#FF4500" d="M17.207 34.415c9.504 0 17.208-7.704 17.208-17.208C34.415 7.704 26.71 0 17.207 0 7.704 0 0 7.704 0 17.207c0 9.504 7.704 17.208 17.207 17.208Z"/><path fill="#fff" d="M28.69 17.207a2.502 2.502 0 0 0-2.506-2.505c-.678 0-1.294.267-1.745.698-1.725-1.232-4.087-2.032-6.715-2.135l1.15-5.38 3.737.8a1.788 1.788 0 0 0 3.573-.082c0-.985-.8-1.786-1.786-1.786-.698 0-1.314.41-1.602 1.006l-4.168-.883a.437.437 0 0 0-.329.062.4.4 0 0 0-.185.288l-1.273 5.995c-2.67.083-5.072.883-6.817 2.136a2.522 2.522 0 0 0-1.745-.698 2.502 2.502 0 0 0-1.027 4.784 4.554 4.554 0 0 0-.062.76c0 3.86 4.497 7.002 10.041 7.002 5.544 0 10.041-3.121 10.041-7.002 0-.247-.02-.513-.061-.76a2.53 2.53 0 0 0 1.478-2.3Zm-17.208 1.787c0-.986.8-1.787 1.786-1.787s1.787.801 1.787 1.787c0 .986-.801 1.786-1.787 1.786-.985.02-1.786-.8-1.786-1.786Zm10 4.743c-1.232 1.232-3.573 1.314-4.25 1.314-.699 0-3.04-.102-4.251-1.314a.459.459 0 0 1 0-.657.459.459 0 0 1 .657 0c.78.78 2.423 1.047 3.593 1.047s2.834-.267 3.594-1.047a.459.459 0 0 1 .657 0 .5.5 0 0 1 0 .657Zm-.329-2.936a1.788 1.788 0 0 1 0-3.573c.986 0 1.787.8 1.787 1.786 0 .966-.801 1.787-1.787 1.787Z"/></g><defs><clipPath id="a"><path fill="#fff" d="M0 0h100v34.497H0z"/></clipPath></defs></svg>
